flaticon/constructions/ruler-2.svg

<svg xmlns="http://www.w3.org/2000/svg" width="32" height="32" viewBox="0 0 24 24">
    <path d="M 23.878906 19.308594 L 13.683594 9.140625 L 19.636719 3.226562 C 19.796875 3.066406 19.796875 2.824219 19.636719 2.664062 L 17.078125 0.105469 C 16.957031 -0.015625 16.757812 -0.015625 16.597656 0.0625 L 9.0625 4.796875 C 8.996094 4.8125 8.929688 4.851562 8.875 4.90625 L 8.855469 4.925781 C 8.847656 4.933594 8.839844 4.941406 8.832031 4.949219 L 4.914062 8.867188 C 4.859375 8.921875 4.824219 8.988281 4.804688 9.054688 L 0.0742188 16.589844 C -0.046875 16.75 -0.0078125 16.949219 0.113281 17.070312 L 2.671875 19.628906 C 2.753906 19.710938 2.832031 19.75 2.953125 19.75 C 3.035156 19.75 3.152344 19.710938 3.234375 19.628906 L 9.148438 13.675781 L 19.320312 23.871094 C 19.398438 23.953125 19.480469 23.992188 19.597656 23.992188 C 19.71875 23.992188 19.796875 23.953125 19.878906 23.871094 L 23.878906 19.871094 C 23.960938 19.789062 24 19.710938 24 19.589844 C 24 19.46875 23.960938 19.390625 23.878906 19.308594 Z M 16.757812 0.90625 L 18.796875 2.945312 L 13.121094 8.582031 L 9.796875 5.265625 Z M 2.953125 18.789062 L 0.914062 16.75 L 5.273438 9.828125 L 8.59375 13.148438 Z M 19.597656 23.03125 L 18.179688 21.609375 L 18.757812 21.03125 C 18.917969 20.871094 18.917969 20.628906 18.757812 20.46875 C 18.597656 20.308594 18.359375 20.308594 18.199219 20.46875 L 17.621094 21.046875 L 17.0625 20.488281 L 18.199219 19.351562 C 18.359375 19.191406 18.359375 18.949219 18.199219 18.789062 C 18.039062 18.628906 17.796875 18.628906 17.636719 18.789062 L 16.503906 19.925781 L 15.941406 19.363281 L 16.519531 18.789062 C 16.675781 18.628906 16.675781 18.390625 16.519531 18.230469 C 16.359375 18.070312 16.117188 18.070312 15.957031 18.230469 L 15.382812 18.804688 L 14.804688 18.222656 L 15.957031 17.070312 C 16.117188 16.910156 16.117188 16.667969 15.957031 16.507812 C 15.796875 16.347656 15.558594 16.347656 15.398438 16.507812 L 14.246094 17.660156 L 13.664062 17.082031 L 14.238281 16.507812 C 14.398438 16.347656 14.398438 16.109375 14.238281 15.949219 C 14.078125 15.789062 13.835938 15.789062 13.675781 15.949219 L 13.105469 16.519531 L 12.546875 15.957031 L 13.675781 14.828125 C 13.835938 14.667969 13.835938 14.429688 13.675781 14.269531 C 13.515625 14.109375 13.277344 14.109375 13.117188 14.269531 L 11.988281 15.398438 L 11.429688 14.835938 L 11.996094 14.269531 C 12.15625 14.109375 12.15625 13.867188 11.996094 13.707031 C 11.835938 13.546875 11.597656 13.546875 11.4375 13.707031 L 10.867188 14.277344 L 10.269531 13.675781 L 11.394531 12.546875 C 11.554688 12.386719 11.554688 12.148438 11.394531 11.988281 C 11.234375 11.828125 10.996094 11.828125 10.835938 11.988281 L 9.710938 13.113281 L 9.488281 12.890625 C 9.472656 12.867188 9.457031 12.847656 9.433594 12.828125 L 9.15625 12.546875 L 9.714844 11.988281 C 9.875 11.828125 9.875 11.585938 9.714844 11.425781 C 9.554688 11.265625 9.316406 11.265625 9.15625 11.425781 L 8.59375 11.988281 L 8.035156 11.425781 L 9.15625 10.308594 C 9.316406 10.148438 9.316406 9.90625 9.15625 9.746094 C 8.996094 9.585938 8.753906 9.585938 8.59375 9.746094 L 7.476562 10.867188 L 6.914062 10.308594 L 7.476562 9.746094 C 7.636719 9.585938 7.636719 9.347656 7.476562 9.1875 C 7.316406 9.027344 7.074219 9.027344 6.914062 9.1875 L 6.355469 9.746094 L 5.753906 9.148438 L 9.15625 5.746094 L 12.835938 9.425781 C 12.859375 9.449219 12.882812 9.46875 12.90625 9.484375 L 23.039062 19.589844 Z M 19.597656 23.03125"/>
</svg>

<svg xmlns="http://www.w3.org/2000/svg" width="32" height="32" viewBox="0 0 24 24">
    <path d="M23.879 19.309L13.684 9.14l5.953-5.914a.39.39 0 0 0 0-.563L17.078.105c-.121-.12-.32-.12-.48-.042L9.063 4.796a.403.403 0 0 0-.188.11l-.02.019-.023.023-3.918 3.918a.44.44 0 0 0-.11.188L.075 16.59a.362.362 0 0 0 .04.48l2.558 2.559c.082.082.16.121.281.121.082 0 .2-.04.281-.121l5.914-5.953L19.32 23.87c.078.082.16.121.278.121.12 0 .199-.039.28-.12l4-4A.361.361 0 0 0 24 19.59c0-.121-.04-.2-.121-.281zM16.758.906l2.039 2.04-5.676 5.636-3.324-3.316zM2.953 18.79L.914 16.75l4.36-6.922 3.32 3.32zm16.645 4.242L18.18 21.61l.578-.578a.39.39 0 0 0 0-.562.385.385 0 0 0-.559 0l-.578.578-.558-.559 1.136-1.136a.39.39 0 0 0 0-.563.39.39 0 0 0-.562 0l-1.133 1.137-.563-.563.579-.574a.391.391 0 0 0 0-.559.39.39 0 0 0-.563 0l-.574.575-.578-.582 1.152-1.153a.39.39 0 0 0 0-.562.385.385 0 0 0-.559 0l-1.152 1.152-.582-.578.574-.574a.385.385 0 0 0 0-.559.39.39 0 0 0-.562 0l-.57.57-.56-.562 1.13-1.129a.385.385 0 0 0 0-.558.385.385 0 0 0-.559 0l-1.129 1.128-.558-.562.566-.566a.39.39 0 0 0 0-.563.385.385 0 0 0-.559 0l-.57.57-.597-.601 1.125-1.13a.385.385 0 0 0 0-.558.385.385 0 0 0-.56 0l-1.124 1.125-.223-.222a.274.274 0 0 0-.054-.063l-.278-.281.559-.559a.39.39 0 0 0 0-.562.385.385 0 0 0-.559 0l-.562.562-.559-.562 1.121-1.117a.39.39 0 0 0 0-.563.39.39 0 0 0-.562 0l-1.117 1.121-.563-.558.563-.563a.385.385 0 0 0 0-.559.39.39 0 0 0-.563 0l-.559.56-.601-.599 3.402-3.402 3.68 3.68a.466.466 0 0 0 .07.058L23.04 19.59zm0 0"/>
</svg>
